X: 1
T: The Antique Polka   [Am]
C: arr. Cal Howard
O: Adapted from Gounod's "Faust"
R: polka
Z: 2018 John Chambers <jc:trillian.mit.edu>
M: 4/4
L: 1/8
K: Am
|:\
"Am"A2cd cBAc | B2A2- A2e2 | "Dm"fgag f2a2 | "Am"a2e2- e2ce |
"Dm"def2- "E7"f2Bd | "Am"cde2- e2Ac | "Dm"Bcdc "E7"Bcde | "Am"e2 A4 !fine!z2 :|
|:\
"C"e2ce g2e2 | "Dm"e2d2- d2cd | "C"edce g2e2 | "Dm"efd3 ecd |
"C"edce g2g2 | "Em"gab3 gbg | "B7"^fga3 faf |1 "Em"g^feg "G7"=fedf :|2 "E7"gfed edcB |]

%%sep 1 1 500

